X: 1996
T: As I Went Out Upon The Ice
R: polka
M: 2/4
K: Adorian
g>f|eA BA|eA AB/d/|eA BA|G2 g>f|
eA BA|eA B/c/B/A/|G>B d/e/d/B/|A2 g>f|
eA BA|eA A>g|eA BA|G2 g>f|
eA BA|eA B>A|G>B dB|A2||
AB/d/|ea a>b|ag e>d|B/c/d ef|g2 g2|
ea ab|ag e>d|Bd gB|A2 AB/d/|
ea a>b|ag e/f/e/d/|Bd ef|g2 g2|
ea a>b|ag ed|Bd gB|A2||
AB/d/|eA B/c/A|eA A>g|eA BA|G2 GB/d/|
e>A BA|eA B>A|G>B dB|A2 g>f|
eA BA|eA AB/d/|eA B/c/B/A/|G2 GB/d/|
e/f/e/A/ BA|eA B>A|G>B dB|A2||
g>f|ea a>b|ag e>d|B/c/d ef|g2 fg|
ea a>b|ag e>d|Bd gB|A2 A>d|
ea- a>b|ag e>d|Bd ef|g2 gf/g/|
ea a>b|ag e>d|B/c/d gB|A2||

